X:1
T:Ultor Omnipotens, 11.10.11.9
T:Ultor Omnipotens, 11.10.11.9
T:Arthur Seymour Sullivan (1842-1900)
T:Public Domain Courtesy of the Cyber Hymnal™
C:Arthur Seymour Sullivan (1842-1900)
Z:Public Domain
Z:Courtesy of the Cyber Hymnal™
%%score ( 1 2 ) ( 3 4 )
L:1/8
Q:1/4=115
M:3/4
K:Eb
V:1 treble 
V:2 treble 
V:3 bass 
V:4 bass 
V:1
 [GB]3 [GB] [GB]2 x | [FB]3 [FB] [FB]2 | B2 [Be]2 [Bd]2 | [Bc]4 [Ac]2 | [Ac]2 [GB]2 [FA]2 | %5
 [EG]2 [DF]2 E2 | [EF]3 [EF] [EG]2 | [DF]6 | [Fc]2 [Fc]2 [Fc]2 | [Gc]2 [G=B]2 [GB]2 | %10
 [Gc]3 [Gc] [Fd]2 | [Ee]2 [Ee]4 | E2 [EF]2 [EG]2 | [DA]2 [EG]2 [CF]2 | D4 [B,D]2 | [B,E]6 |] %16
V:2
 x7 | x6 | B2 x4 | x6 | x6 | x4 E2 | x6 | x6 | x6 | x6 | x6 | x6 | E2 x4 | x6 | (C2 B,2) x2 | x6 |] %16
V:3
 E3 z E [E,E]2 | [B,E]3 [B,E] [A,D]2 | [G,E]2 [G,E]2 [G,E]2 | [A,E]4 [A,,E]2 | %4
 [B,,D]2 [C,E]2 [D,B,]2 | [E,B,]2 [F,B,]2 [G,B,]2 | [=A,C]3 [A,C] [F,A,]2 | B,6 | %8
 [A,C]2 [A,C]2 [A,C]2 | [G,D]2 [G,D]2 [F,D]2 | G,2 z [D,=B,]2 x | [C,C]2 [C,C]4 | %12
 [A,,C]2 [A,,C]2 [G,,B,]2 | [F,,A,]2 [G,,B,]2 [A,,C]2 | (F,2 G,2) [B,,A,]2 | [E,G,]6 |] %16
V:4
 E,2 G,2 x3 | x6 | x6 | x6 | x6 | x6 | x6 | B,6 | x6 | x6 | E,3 (=A,2 E,) | x6 | x6 | x6 | %14
 B,,4 x2 | x6 |] %16

